X:1
T:She Said the Same to Me
M:6/8
L:1/8
K:F
 c| A2 F G2 F| D C2- CD E| F F2 F2 F| F3- F2 c| A2 F G2 F| D C2- CD E|\
 F F2 F2 F| F3- Fc B| A2 F G2 F| D C2- CD E| F F2 F2 F| F3- F2 c| AAF G2 F|\
 D2 C CDE| F F2 F2 F| F3- F2||

